X: 3176
T: Bedford Cross
R: slide
M: 12/8
K: Dmajor
|:A3 AGA B2A G2B|AGE G2E D2E G2B
A3 AGA B2A G2B|AGE G2E D3 D2z:|
|:d3 AGA B2A G2B|AGE G2E D2E G2B
d3 AGA B2A G2B|AGE G2E D3 D2z:|

